X: 889
T: Alexander's
R: hornpipe
M: 4/4
K: Dmajor
(3ABc|dAFA DFAd|(3fed cd A2 ef|gfed edcd|(3efe (3dcB A2 (3ABc|
dAFA DFAd|(3fed cd A2 ef|gfge cABc|(3dcd fe d2:|
AG|(3FGA dA (3FGA dA|GBdB GBdB|Acec Acec|dfaf dfa2|
(3FGA dA (3FGA dA|GBdB GBdB|Acef (3gfe cA|(3dcd fe d2:|

